X: 1
T: Prstlundsbcken
R: Polska
O: Dalarna
C: Brodd-Albin Johansson
S:   utlrd p nyckelharpskursen i Slagsta r 2002
H: Brodd-Albin som bodde i Vika utanfr Falun gjorde lten under sin hlsingeperiod.
N: Spelas med varje par av sextondelar bundna.
M: 3/4
K: Gm
L: 1/16
Z: 2008-09-04, Nils L
D2 | G^FGA BABc d2g2 | dedc BcBA G2D2 | B2AG ^FGAF DFAF | DGBG D2C2 B,2D2 | 
     G^FGA BABc d2g2 | dedc BcBA G2D2 | B2AG ^FGAF DFAF | ^F2G4< G4 ::
F2 | DFBF DFBF dFBF | D^FAF DFAF dFAF | DGBG DGBG dGBG | D^FAF D2C2 B,2=F2 |
     DFBF DFBF dFBF | D^FAF DFAF dFAF | DGBG DGB2 dcBA | G2^FG A4 G4 :|
